X: 567
M: C|
L: 1/8
K: C
c2ed cded | c2 A4 G2 | c2ed cdec | f2 d4 G2 |\
c2ed cded | c2A2 f3A | A2GF G2e2 | f2 d4 :|
|: ef |\
g3f e2d2 | c2 A4 ef | g3f e2dc | f2 d4 ef |\
g3f e2d2 | c2A2 f3A | A2GF G2e2 | f2 d4 :|

